CN6T1/184/aimg/triste.svg

<svg clip-rule="evenodd" fill-rule="evenodd" stroke-linejoin="round" stroke-miterlimit="2" viewBox="0 0 175 175" xmlns="http://www.w3.org/2000/svg"><g fill-rule="nonzero"><path d="m-21.26-21.261c11.742 0 21.259 9.518 21.259 21.26 0 11.741-9.517 21.261-21.259 21.261-11.743 0-21.26-9.52-21.26-21.261 0-11.742 9.517-21.26 21.26-21.26" fill="#ffd201" transform="matrix(0 4.09706161098 -4.09701577761 0 87.11738388 174.21149911)"/><g fill="#231f20"><path d="m0-5.03c-.254 0-.508.093-.708.279-1.73 1.611-4.085 2.553-6.629 2.65-2.828.107-5.52-.854-7.392-2.641-.415-.397-1.073-.381-1.47.034s-.381 1.074.034 1.47c2.276 2.173 5.527 3.347 8.907 3.215 3.043-.116 5.872-1.255 7.967-3.206.42-.392.443-1.05.053-1.47-.205-.22-.484-.331-.762-.331" transform="matrix(4.09701577761 0 0 -4.09706161098 120.77574414 101.71977445)"/><path d="m0-5.186c-.064 0-.129.009-.194.028l-4.516 1.318c-.271.08-.469.317-.495.598-.027.283.119.553.371.683 0 .001 3.513 1.817 4.564 2.377.338.182.757.053.938-.285.18-.338.052-.758-.286-.938-.591-.315-1.955-1.026-3.042-1.589l2.854-.833c.368-.108.578-.492.471-.859-.088-.303-.364-.5-.665-.5" transform="matrix(4.09701577761 0 0 -4.09706161098 141.72159423 76.15308733)"/><path d="m0-5.186c-.301 0-.577.197-.666.5-.107.367.104.751.472.859l2.854.833c-1.087.563-2.452 1.274-3.043 1.589-.338.18-.466.6-.286.938s.599.467.939.285c1.051-.56 4.564-2.377 4.564-2.377.251-.13.398-.4.371-.683-.027-.281-.224-.518-.495-.598l-4.516-1.318c-.065-.019-.131-.028-.194-.028" transform="matrix(4.09701577761 0 0 -4.09706161098 37.34651073 76.15308733)"/><path d="m0-4.616c-.035 0-.07.003-.105.008-3.458.534-5.194 3.337-5.265 3.456-.199.328-.095.753.232.952.328.2.753.095.952-.232.027-.042 1.5-2.375 4.291-2.805.378-.059.638-.413.58-.791-.053-.343-.348-.588-.685-.588" transform="matrix(4.09701577761 0 0 -4.09706161098 145.91743092 48.23223166)"/><path d="m0-4.616c-.337 0-.632.245-.686.588-.057.378.203.732.581.791 2.824.435 4.276 2.781 4.29 2.805.198.327.623.432.952.232.327-.199.431-.624.233-.952-.072-.119-1.808-2.922-5.265-3.456-.035-.005-.071-.008-.105-.008" transform="matrix(4.09701577761 0 0 -4.09706161098 33.15067404 48.23223166)"/></g></g></svg>

<?xml version="1.0" encoding="UTF-8" standalone="no"?>
<!DOCTYPE svg PUBLIC "-//W3C//DTD SVG 1.1//EN" "http://www.w3.org/Graphics/SVG/1.1/DTD/svg11.dtd">
<svg width="100%" height="100%" viewBox="0 0 175 175" version="1.1" xmlns="http://www.w3.org/2000/svg" xmlns:xlink="http://www.w3.org/1999/xlink" xml:space="preserve" xmlns:serif="http://www.serif.com/" style="fill-rule:evenodd;clip-rule:evenodd;stroke-linejoin:round;stroke-miterlimit:2;">
    <g transform="matrix(1,0,0,1,-11705.1,-4245.61)">
        <g transform="matrix(4.16667,0,0,4.16667,10895.7,3587.6)">
            <g transform="matrix(0,0.983294,-0.983283,0,215.164,199.733)">
                <path d="M-21.26,-21.261C-9.518,-21.261 -0.001,-11.743 -0.001,-0.001C-0.001,11.74 -9.518,21.26 -21.26,21.26C-33.003,21.26 -42.52,11.74 -42.52,-0.001C-42.52,-11.743 -33.003,-21.261 -21.26,-21.261" style="fill:rgb(255,210,1);fill-rule:nonzero;"/>
            </g>
        </g>
        <g transform="matrix(4.16667,0,0,4.16667,10895.7,3587.6)">
            <g transform="matrix(0.983283,0,0,-0.983294,223.242,182.335)">
                <path d="M0,-5.03C-0.254,-5.03 -0.508,-4.937 -0.708,-4.751C-2.438,-3.14 -4.793,-2.198 -7.337,-2.101C-10.165,-1.994 -12.857,-2.955 -14.729,-4.742C-15.144,-5.139 -15.802,-5.123 -16.199,-4.708C-16.596,-4.293 -16.58,-3.634 -16.165,-3.238C-13.889,-1.065 -10.638,0.109 -7.258,-0.023C-4.215,-0.139 -1.386,-1.278 0.709,-3.229C1.129,-3.621 1.152,-4.279 0.762,-4.699C0.557,-4.919 0.278,-5.03 0,-5.03" style="fill:rgb(35,31,32);fill-rule:nonzero;"/>
            </g>
        </g>
        <g transform="matrix(4.16667,0,0,4.16667,10895.7,3587.6)">
            <g transform="matrix(0.983283,0,0,-0.983294,228.269,176.199)">
                <path d="M0,-5.186C-0.064,-5.186 -0.129,-5.177 -0.194,-5.158L-4.71,-3.84C-4.981,-3.76 -5.179,-3.523 -5.205,-3.242C-5.232,-2.959 -5.086,-2.689 -4.834,-2.559C-4.834,-2.558 -1.321,-0.742 -0.27,-0.182C0.068,0 0.487,-0.129 0.668,-0.467C0.848,-0.805 0.72,-1.225 0.382,-1.405C-0.209,-1.72 -1.573,-2.431 -2.66,-2.994L0.194,-3.827C0.562,-3.935 0.772,-4.319 0.665,-4.686C0.577,-4.989 0.301,-5.186 0,-5.186" style="fill:rgb(35,31,32);fill-rule:nonzero;"/>
            </g>
        </g>
        <g transform="matrix(4.16667,0,0,4.16667,10895.7,3587.6)">
            <g transform="matrix(0.983283,0,0,-0.983294,203.219,176.199)">
                <path d="M0,-5.186C-0.301,-5.186 -0.577,-4.989 -0.666,-4.686C-0.773,-4.319 -0.562,-3.935 -0.194,-3.827L2.66,-2.994C1.573,-2.431 0.208,-1.72 -0.383,-1.405C-0.721,-1.225 -0.849,-0.805 -0.669,-0.467C-0.489,-0.129 -0.07,0 0.27,-0.182C1.321,-0.742 4.834,-2.559 4.834,-2.559C5.085,-2.689 5.232,-2.959 5.205,-3.242C5.178,-3.523 4.981,-3.76 4.71,-3.84L0.194,-5.158C0.129,-5.177 0.063,-5.186 0,-5.186" style="fill:rgb(35,31,32);fill-rule:nonzero;"/>
            </g>
        </g>
        <g transform="matrix(4.16667,0,0,4.16667,10895.7,3587.6)">
            <g transform="matrix(0.983283,0,0,-0.983294,229.276,169.498)">
                <path d="M0,-4.616C-0.035,-4.616 -0.07,-4.613 -0.105,-4.608C-3.563,-4.074 -5.299,-1.271 -5.37,-1.152C-5.569,-0.824 -5.465,-0.399 -5.138,-0.2C-4.81,0 -4.385,-0.105 -4.186,-0.432C-4.159,-0.474 -2.686,-2.807 0.105,-3.237C0.483,-3.296 0.743,-3.65 0.685,-4.028C0.632,-4.371 0.337,-4.616 0,-4.616" style="fill:rgb(35,31,32);fill-rule:nonzero;"/>
            </g>
        </g>
        <g transform="matrix(4.16667,0,0,4.16667,10895.7,3587.6)">
            <g transform="matrix(0.983283,0,0,-0.983294,202.212,169.498)">
                <path d="M0,-4.616C-0.337,-4.616 -0.632,-4.371 -0.686,-4.028C-0.743,-3.65 -0.483,-3.296 -0.105,-3.237C2.719,-2.802 4.171,-0.456 4.185,-0.432C4.383,-0.105 4.808,0 5.137,-0.2C5.464,-0.399 5.568,-0.824 5.37,-1.152C5.298,-1.271 3.562,-4.074 0.105,-4.608C0.07,-4.613 0.034,-4.616 0,-4.616" style="fill:rgb(35,31,32);fill-rule:nonzero;"/>
            </g>
        </g>
    </g>
</svg>
